X:7
T:The Lilting Fisherman
R:Jig
M:6/8
K:G
|: dBG GBd | g2g ege | dBG GFG | AFD cBc |
   dBG GBd | g2g ege | dBG FGA |1 BGF G3 :|2 BGF G2B |
K:D
|: A3 AFA | f2f f2e | dce dcB | AFF F2G |
   A2A DFA | B3 B2d | c2c ABc |1 dfe dcB :|2 dfe d3 ||

